X: 9
T: Mouse In The Mug, The
C: Tom McElvogue
Z: John E Roche
S: https://thesession.org/tunes/362#setting53911
R: jig
M: 6/8
L: 1/8
K: Gmaj
|:~G3 EGD| GFG B/c/dg|e/e/ee dBG| AGA ~B2 A|
~G3 EGD|~G3 B/c/dg|ege dBG|1 AGF GBA:|2 AGF GB/c/d||
g2 g ged|e2 g edB|d^cd edB|BAG AB/c/d|
g/g/ga ged|e/e/eg edB|dB/c/d edB|AGF G zf|
~g2 a ged|~e2 g edB|d2g edB| A^GA ~B2 A|
~G3 EGD|~G3 B/c/dg|e/e/ee dBG|AGF G2 z||

%-------------------- TUNE SEPARATOR --------------------%

